public/eco.svg

<svg id="ecosolution" width="169" height="25" viewBox="0 0 169 25" fill="none" xmlns="http://www.w3.org/2000/svg">
<path d="M9.735 24.429C4.587 24.429 0.957 20.799 0.957 15.849C0.957 10.899 4.587 7.269 9.735 7.269C14.883 7.269 18.447 10.899 18.447 15.849V17.136H4.719C5.214 19.743 7.194 21.162 9.735 21.162C11.649 21.162 13.035 20.601 13.926 19.38H17.787C16.533 22.449 13.563 24.429 9.735 24.429ZM4.818 14.133H14.685C14.058 11.757 12.111 10.536 9.735 10.536C7.293 10.536 5.445 11.79 4.818 14.133ZM27.8154 24.429C22.6674 24.429 19.0374 20.799 19.0374 15.849C19.0374 10.899 22.6674 7.269 27.8154 7.269C32.2044 7.269 35.4384 9.909 36.2634 13.704H32.6664C31.9074 11.823 30.1584 10.569 27.8154 10.569C24.7134 10.569 22.6344 12.78 22.6344 15.849C22.6344 18.918 24.7134 21.129 27.8154 21.129C30.1584 21.129 31.9074 19.875 32.6664 17.994H36.2634C35.4384 21.789 32.2044 24.429 27.8154 24.429ZM45.638 24.429C40.49 24.429 36.86 20.799 36.86 15.849C36.86 10.899 40.49 7.269 45.638 7.269C50.786 7.269 54.416 10.899 54.416 15.849C54.416 20.799 50.786 24.429 45.638 24.429ZM45.638 21.129C48.74 21.129 50.786 18.918 50.786 15.849C50.786 12.78 48.74 10.569 45.638 10.569C42.536 10.569 40.457 12.78 40.457 15.849C40.457 18.918 42.536 21.129 45.638 21.129ZM61.8688 24.429C57.7438 24.429 55.1368 22.218 55.0378 19.215H58.6348C58.7008 20.436 59.7898 21.261 61.8688 21.261C64.0468 21.261 65.0698 20.337 65.0698 19.215C65.0698 17.829 63.5188 17.664 61.6048 17.4C58.9648 17.07 55.3678 16.575 55.3678 12.714C55.3678 9.447 57.9088 7.269 61.8358 7.269C65.7628 7.269 68.2048 9.513 68.2708 12.351H64.7398C64.6408 11.229 63.6178 10.437 61.8688 10.437C59.9878 10.437 58.9648 11.328 58.9648 12.45C58.9648 13.836 60.5818 14.001 62.4298 14.265C64.9378 14.595 68.6668 15.057 68.6668 18.951C68.6668 22.251 65.9938 24.429 61.8688 24.429ZM78.0927 24.429C72.9447 24.429 69.3147 20.799 69.3147 15.849C69.3147 10.899 72.9447 7.269 78.0927 7.269C83.2407 7.269 86.8707 10.899 86.8707 15.849C86.8707 20.799 83.2407 24.429 78.0927 24.429ZM78.0927 21.129C81.1947 21.129 83.2407 18.918 83.2407 15.849C83.2407 12.78 81.1947 10.569 78.0927 10.569C74.9907 10.569 72.9117 12.78 72.9117 15.849C72.9117 18.918 74.9907 21.129 78.0927 21.129ZM88.6805 24V0.569999H92.2445V24H88.6805ZM102.812 24.429C97.9935 24.429 94.7595 21.657 94.7595 16.179V7.698H98.3235V16.179C98.3235 19.479 100.106 21.129 102.812 21.129C105.518 21.129 107.3 19.479 107.3 16.179V7.698H110.864V16.179C110.864 21.624 107.63 24.429 102.812 24.429ZM119.375 24.429C115.448 24.429 112.775 22.251 112.775 17.763V1.923H116.339V7.698H125.018V10.932H116.339V17.763C116.339 20.139 117.56 21.129 119.375 21.129C121.19 21.129 122.444 20.172 122.444 17.763V17.367H125.975V17.763C125.975 22.251 123.302 24.429 119.375 24.429ZM129.59 5.388C128.204 5.388 127.181 4.332 127.181 2.946C127.181 1.56 128.204 0.504 129.59 0.504C130.976 0.504 131.999 1.56 131.999 2.946C131.999 4.332 130.976 5.388 129.59 5.388ZM127.775 24V7.698H131.339V24H127.775ZM141.94 24.429C136.792 24.429 133.162 20.799 133.162 15.849C133.162 10.899 136.792 7.269 141.94 7.269C147.088 7.269 150.718 10.899 150.718 15.849C150.718 20.799 147.088 24.429 141.94 24.429ZM141.94 21.129C145.042 21.129 147.088 18.918 147.088 15.849C147.088 12.78 145.042 10.569 141.94 10.569C138.838 10.569 136.759 12.78 136.759 15.849C136.759 18.918 138.838 21.129 141.94 21.129ZM151.967 24V15.519C151.967 10.074 155.201 7.269 160.019 7.269C164.837 7.269 168.071 10.041 168.071 15.519V24H164.507V15.519C164.507 12.219 162.725 10.569 160.019 10.569C157.313 10.569 155.531 12.219 155.531 15.519V24H151.967Z" fill="#173D33"/>
</svg>

<svg id="ecosolution" width="169" height="25" fill="none" xmlns="https://www.w3.org/2000/svg">
<path d="M9.735 24.429c-5.148 0-8.778-3.63-8.778-8.58s3.63-8.58 8.778-8.58c5.148 0 8.712 3.63 8.712 8.58v1.287H4.719c.495 2.607 2.475 4.026 5.016 4.026 1.914 0 3.3-.561 4.191-1.782h3.861c-1.254 3.069-4.224 5.049-8.052 5.049ZM4.818 14.133h9.867c-.627-2.376-2.574-3.597-4.95-3.597-2.442 0-4.29 1.254-4.917 3.597Zm22.997 10.296c-5.148 0-8.778-3.63-8.778-8.58s3.63-8.58 8.778-8.58c4.39 0 7.623 2.64 8.448 6.435h-3.597c-.759-1.881-2.508-3.135-4.85-3.135-3.103 0-5.182 2.211-5.182 5.28 0 3.069 2.08 5.28 5.181 5.28 2.343 0 4.092-1.254 4.851-3.135h3.597c-.825 3.795-4.059 6.435-8.448 6.435Zm17.823 0c-5.148 0-8.778-3.63-8.778-8.58s3.63-8.58 8.778-8.58c5.148 0 8.778 3.63 8.778 8.58s-3.63 8.58-8.778 8.58Zm0-3.3c3.102 0 5.148-2.211 5.148-5.28 0-3.069-2.046-5.28-5.148-5.28s-5.181 2.211-5.181 5.28c0 3.069 2.079 5.28 5.181 5.28Zm16.23 3.3c-4.124 0-6.731-2.211-6.83-5.214h3.597c.066 1.221 1.155 2.046 3.234 2.046 2.178 0 3.2-.924 3.2-2.046 0-1.386-1.55-1.551-3.464-1.815-2.64-.33-6.237-.825-6.237-4.686 0-3.267 2.54-5.445 6.468-5.445 3.927 0 6.369 2.244 6.435 5.082H64.74c-.1-1.122-1.122-1.914-2.871-1.914-1.881 0-2.904.891-2.904 2.013 0 1.386 1.617 1.551 3.465 1.815 2.508.33 6.237.792 6.237 4.686 0 3.3-2.673 5.478-6.798 5.478Zm16.225 0c-5.148 0-8.778-3.63-8.778-8.58s3.63-8.58 8.778-8.58c5.148 0 8.778 3.63 8.778 8.58s-3.63 8.58-8.778 8.58Zm0-3.3c3.102 0 5.148-2.211 5.148-5.28 0-3.069-2.046-5.28-5.148-5.28s-5.181 2.211-5.181 5.28c0 3.069 2.079 5.28 5.18 5.28ZM88.68 24V.57h3.564V24H88.68Zm14.132.429c-4.819 0-8.052-2.772-8.052-8.25V7.698h3.563v8.481c0 3.3 1.783 4.95 4.489 4.95s4.488-1.65 4.488-4.95V7.698h3.564v8.481c0 5.445-3.234 8.25-8.052 8.25Zm16.563 0c-3.927 0-6.6-2.178-6.6-6.666V1.923h3.564v5.775h8.679v3.234h-8.679v6.831c0 2.376 1.221 3.366 3.036 3.366s3.069-.957 3.069-3.366v-.396h3.531v.396c0 4.488-2.673 6.666-6.6 6.666ZM129.59 5.388c-1.386 0-2.409-1.056-2.409-2.442 0-1.386 1.023-2.442 2.409-2.442s2.409 1.056 2.409 2.442c0 1.386-1.023 2.442-2.409 2.442ZM127.775 24V7.698h3.564V24h-3.564Zm14.165.429c-5.148 0-8.778-3.63-8.778-8.58s3.63-8.58 8.778-8.58c5.148 0 8.778 3.63 8.778 8.58s-3.63 8.58-8.778 8.58Zm0-3.3c3.102 0 5.148-2.211 5.148-5.28 0-3.069-2.046-5.28-5.148-5.28s-5.181 2.211-5.181 5.28c0 3.069 2.079 5.28 5.181 5.28ZM151.967 24v-8.481c0-5.445 3.234-8.25 8.052-8.25s8.052 2.772 8.052 8.25V24h-3.564v-8.481c0-3.3-1.782-4.95-4.488-4.95-2.706 0-4.488 1.65-4.488 4.95V24h-3.564Z" fill="#173D33"/>
</svg>
